X:98
T: Széles víz a Duna...
M: 2/4
L: 1/4
K: F
g/g/g/a/ | gf | 
g/d/d/c/ | B G | 
g/d/ c | c/=B/c | 
d/d/d/e/ | fg | 
c/c/f/f/ | _e d | 
B/A/G | G/G/G | 

